X:1
L:1/8
M:2/4
K:F
 F/G/ | BGFA | GABd | Bcde | f^f/=f/ d/c/B/A/ | BG^FA | GABc | cdeg | f3 |] !fermata!=B/c/ | 
 (c/d/)(d/e/) (e/f/)(f/g/) | g>ec e/d/ | d/c/c/B/ B/A/A/G/ | F2""^D.C."" z :|
